tools/download-figma-icons/icons/outlined-medium/warm-water.svg

<svg width="24" height="24" viewBox="0 0 24 24" fill="none" xmlns="http://www.w3.org/2000/svg">
<path d="M9.74981 19.5002C9.63527 19.5 9.52232 19.4735 9.41962 19.4228C9.31691 19.3721 9.22719 19.2985 9.15732 19.2077C7.53735 17.0853 8.40733 15.6753 9.11232 14.6403C9.81731 13.6054 10.1398 13.0429 9.11232 11.6854C9.0444 11.6075 8.99333 11.5163 8.9623 11.4177C8.93128 11.3191 8.92097 11.2152 8.93203 11.1124C8.9431 11.0096 8.97529 10.9102 9.02659 10.8205C9.07789 10.7307 9.14718 10.6525 9.23013 10.5909C9.31308 10.5292 9.40788 10.4853 9.5086 10.462C9.60931 10.4387 9.71375 10.4364 9.81537 10.4554C9.91699 10.4744 10.0136 10.5142 10.0991 10.5722C10.1846 10.6303 10.2572 10.7055 10.3123 10.7929C11.9248 12.9829 11.0098 14.4153 10.3123 15.4578C9.61481 16.5003 9.31482 17.0178 10.3123 18.2928C10.3963 18.4016 10.4487 18.5315 10.4639 18.6681C10.4791 18.8048 10.4564 18.943 10.3983 19.0676C10.3403 19.1922 10.2491 19.2985 10.1347 19.3748C10.0203 19.4511 9.88718 19.4945 9.74981 19.5002Z" fill="black"/>
<path d="M13.4997 19.5002C13.3852 19.5 13.2722 19.4735 13.1695 19.4228C13.0668 19.3721 12.9771 19.2985 12.9072 19.2077C11.2872 17.0853 12.1947 15.6753 12.8622 14.6403C13.5297 13.6054 13.8897 13.0429 12.8997 11.6854C12.8318 11.6075 12.7807 11.5163 12.7497 11.4177C12.7187 11.3191 12.7084 11.2152 12.7194 11.1124C12.7305 11.0096 12.7627 10.9102 12.814 10.8205C12.8653 10.7307 12.9346 10.6525 13.0175 10.5909C13.1005 10.5292 13.1953 10.4853 13.296 10.462C13.3967 10.4387 13.5011 10.4364 13.6028 10.4554C13.7044 10.4744 13.801 10.5142 13.8865 10.5722C13.972 10.6303 14.0446 10.7055 14.0997 10.7929C15.7121 12.9829 14.7972 14.4153 14.0997 15.4578C13.4022 16.5003 13.1022 17.0178 14.0997 18.2928C14.1854 18.4042 14.2382 18.5374 14.2518 18.6773C14.2655 18.8172 14.2396 18.9581 14.177 19.084C14.1145 19.2099 14.0178 19.3157 13.8981 19.3893C13.7783 19.4629 13.6403 19.5013 13.4997 19.5002Z" fill="black"/>
<path d="M11.9998 24C9.61286 24 7.32372 23.0518 5.63592 21.364C3.94813 19.6762 2.99994 17.3871 2.99994 15.0002C2.99994 10.8753 8.94732 2.64043 10.5373 0.667975C10.7189 0.458308 10.9435 0.290149 11.1959 0.174898C11.4482 0.0596474 11.7224 0 11.9998 0C12.2772 0 12.5513 0.0596474 12.8037 0.174898C13.056 0.290149 13.2806 0.458308 13.4622 0.667975C15.0522 2.64043 20.9996 10.8753 20.9996 15.0002C20.9996 17.3871 20.0514 19.6762 18.3636 21.364C16.6758 23.0518 14.3867 24 11.9998 24ZM11.9998 1.50046C11.9431 1.49897 11.887 1.51114 11.8361 1.53594C11.7852 1.56075 11.741 1.59745 11.7073 1.64296C9.19481 4.73289 4.49991 11.8652 4.49991 15.0002C4.49991 16.9893 5.29007 18.8969 6.69656 20.3034C8.10306 21.7099 10.0107 22.5 11.9998 22.5C13.9888 22.5 15.8965 21.7099 17.3029 20.3034C18.7094 18.8969 19.4996 16.9893 19.4996 15.0002C19.4996 11.8427 14.8047 4.71039 12.2922 1.59046C12.2534 1.55444 12.2069 1.52764 12.1563 1.51206C12.1056 1.49648 12.0521 1.49251 11.9998 1.50046Z" fill="black"/>
</svg>

<svg width="24" height="24" viewBox="0 0 24 24" fill="none" xmlns="http://www.w3.org/2000/svg"><path d="M9.75 19.5a.749.749 0 0 1-.593-.292c-1.62-2.123-.75-3.533-.045-4.568.705-1.035 1.028-1.597 0-2.955a.75.75 0 1 1 1.2-.892c1.613 2.19.698 3.622 0 4.665-.697 1.042-.997 1.56 0 2.835A.75.75 0 0 1 9.75 19.5Zm3.75 0a.749.749 0 0 1-.593-.292c-1.62-2.123-.712-3.533-.045-4.568.668-1.035 1.028-1.597.038-2.955a.75.75 0 1 1 1.2-.892c1.612 2.19.697 3.622 0 4.665-.698 1.042-.998 1.56 0 2.835a.75.75 0 0 1-.6 1.207Z" fill="currentColor"/><path d="M12 24a9 9 0 0 1-9-9C3 10.875 8.947 2.64 10.537.668a1.934 1.934 0 0 1 2.925 0C15.052 2.64 21 10.875 21 15a9 9 0 0 1-9 9Zm0-22.5a.352.352 0 0 0-.293.143C9.195 4.733 4.5 11.865 4.5 15a7.5 7.5 0 1 0 15 0c0-3.157-4.695-10.29-7.208-13.41A.352.352 0 0 0 12 1.5Z" fill="currentColor"/></svg>
